src/lib/packages/icons/src/assets/line/rocket-launch.svg

<svg width="24" height="24" viewBox="0 0 24 24" fill="none" xmlns="http://www.w3.org/2000/svg">
<path d="M5.85 15.73C5.2 15.73 4.56 15.98 4.07 16.47C3.26 17.28 2.48999 20 2.27999 20.81C2.20999 21.07 2.27999 21.34 2.46999 21.53C2.60999 21.68 2.81 21.76 3.01 21.76C3.07 21.76 3.12999 21.76 3.18999 21.74C3.96999 21.55 6.57998 20.86 7.39998 20.05C8.41998 19.03 8.48998 17.43 7.54998 16.48C7.08998 16.02 6.48998 15.76 5.86999 15.74L5.85 15.73ZM6.32998 18.97C6.07998 19.22 5.12998 19.59 4.10998 19.91C4.46998 18.81 4.88 17.79 5.14 17.52C5.34 17.32 5.57 17.21 5.82 17.22C6.06 17.22 6.29 17.33 6.48 17.52C6.84 17.88 6.76998 18.53 6.32998 18.96V18.97ZM15.26 5.78C13.61 5.78 12.26 7.12 12.26 8.77C12.26 10.42 13.61 11.76 15.26 11.76C16.91 11.76 18.26 10.42 18.26 8.77C18.26 7.12 16.91 5.78 15.26 5.78ZM15.26 10.27C14.43 10.27 13.76 9.6 13.76 8.78C13.76 7.96 14.43 7.29001 15.26 7.29001C16.09 7.29001 16.76 7.96 16.76 8.78C16.76 9.6 16.09 10.27 15.26 10.27ZM21.44 3.07C21.37 2.8 21.16 2.59 20.89 2.53C20.65 2.47 14.87 1.12 11.1 4.89C10.59 5.4 10.16 5.90001 9.76 6.38001L7.67 6.83001C5.69 7.15001 4.00998 8.5 3.26998 10.35L2.30999 12.74C2.20999 13 2.24998 13.29 2.42998 13.5C2.56998 13.67 2.77999 13.76 2.99999 13.76C3.04999 13.76 3.10999 13.76 3.15999 13.74L6.52999 12.99C6.47999 13.16 6.42999 13.33 6.36999 13.51C6.23998 13.96 6.34998 14.44 6.67998 14.76L9.2 17.28C9.44 17.52 9.75999 17.65 10.09 17.65C10.2 17.65 10.31 17.64 10.41 17.61C10.62 17.55 10.82 17.5 11.02 17.44L10.26 20.83C10.2 21.1 10.29 21.38 10.51 21.56C10.65 21.68 10.82 21.74 11 21.74C11.09 21.74 11.19 21.72 11.28 21.69L13.67 20.73C15.53 19.99 16.89 18.31 17.2 16.38L17.64 14.36C18.14 13.95 18.65 13.51 19.19 12.97C22.96 9.19001 21.5 3.31001 21.44 3.06001V3.07ZM4.23998 11.98L4.67 10.91C5.21 9.54001 6.46 8.55 7.95 8.31L8.49999 8.19001C8.24999 8.61001 8.03999 9.03001 7.83999 9.47001C7.82999 9.49001 7.81999 9.51 7.80999 9.53C7.53999 10.11 7.29998 10.72 7.07998 11.35L4.23998 11.98ZM10.17 16.13L7.85998 13.82C8.15998 12.81 8.44998 11.93 8.76998 11.11L12.96 15.29C12.14 15.59 11.24 15.85 10.18 16.14L10.17 16.13ZM15.73 16.11C15.5 17.56 14.5 18.8 13.12 19.34L12.05 19.77L12.68 16.96C13.35 16.75 13.97 16.51 14.56 16.26C14.57 16.26 14.59 16.25 14.6 16.24C15.03 16.05 15.44 15.84 15.84 15.61L15.73 16.11ZM14.45 14.66L9.40999 9.63C10.04 8.4 10.86 7.25001 12.16 5.95001C14.77 3.34001 18.74 3.69001 20.08 3.90001C20.32 5.25001 20.75 9.3 18.13 11.92C16.83 13.22 15.71 14.04 14.45 14.66Z" fill="currentColor"/>
</svg>

<svg xmlns="http://www.w3.org/2000/svg" width="24" height="24" fill="none"><path fill="currentColor" d="M5.85 15.73c-.65 0-1.29.25-1.78.74-.81.81-1.58 3.53-1.79 4.34-.07.26 0 .53.19.72.14.15.34.23.54.23.06 0 .12 0 .18-.02.78-.19 3.39-.88 4.21-1.69 1.02-1.02 1.09-2.62.15-3.57-.46-.46-1.06-.72-1.68-.74l-.02-.01Zm.48 3.24c-.25.25-1.2.62-2.22.94.36-1.1.77-2.12 1.03-2.39.2-.2.43-.31.68-.3.24 0 .47.11.66.3.36.36.29 1.01-.15 1.44v.01Zm8.93-13.19a3 3 0 0 0-3 2.99 3 3 0 0 0 6 0 3 3 0 0 0-3-2.99Zm0 4.49c-.83 0-1.5-.67-1.5-1.49s.67-1.49 1.5-1.49 1.5.67 1.5 1.49-.67 1.49-1.5 1.49Zm6.18-7.2a.737.737 0 0 0-.55-.54c-.24-.06-6.02-1.41-9.79 2.36-.51.51-.94 1.01-1.34 1.49l-2.09.45a5.743 5.743 0 0 0-4.4 3.52l-.96 2.39c-.1.26-.06.55.12.76.14.17.35.26.57.26.05 0 .11 0 .16-.02l3.37-.75c-.05.17-.1.34-.16.52-.13.45-.02.93.31 1.25l2.52 2.52c.24.24.56.37.89.37.11 0 .22-.01.32-.04.21-.06.41-.11.61-.17l-.76 3.39c-.06.27.03.55.25.73.14.12.31.18.49.18.09 0 .19-.02.28-.05l2.39-.96c1.86-.74 3.22-2.42 3.53-4.35l.44-2.02c.5-.41 1.01-.85 1.55-1.39 3.77-3.78 2.31-9.66 2.25-9.91v.01Zm-17.2 8.91.43-1.07c.54-1.37 1.79-2.36 3.28-2.6l.55-.12c-.25.42-.46.84-.66 1.28l-.03.06c-.27.58-.51 1.19-.73 1.82l-2.84.63Zm5.93 4.15-2.31-2.31c.3-1.01.59-1.89.91-2.71l4.19 4.18c-.82.3-1.72.56-2.78.85l-.01-.01Zm5.56-.02a4.195 4.195 0 0 1-2.61 3.23l-1.07.43.63-2.81c.67-.21 1.29-.45 1.88-.7.01 0 .03-.01.04-.02.43-.19.84-.4 1.24-.63l-.11.5Zm-1.28-1.45L9.41 9.63c.63-1.23 1.45-2.38 2.75-3.68 2.61-2.61 6.58-2.26 7.92-2.05.24 1.35.67 5.4-1.95 8.02-1.3 1.3-2.42 2.12-3.68 2.74Z"/></svg>
